X: 35969
T: Sarah's Song
R: waltz
M: 3/4
K: Dmajor
A "A7"f>g|"D"f3 e d>c|"G"c/B3 B/ g>f|"Em"e3 d e>f|"A7"A3 A f>g|
"D"f3 e d>c|"G"c/B3 B/ "Em"g>B|"A7"c3 d e>d|"D"d3:|
A "A7"a>g|"Bm"f3 e/d/ "Em"g>B|"A7"c/A3 G>A|"G"B3 d e>f|"A7"A3 A a>g|
"D"f3 e/d/ "G"g>B|"A7"c/A3 G>A|"G"B3 d "A7"e>d|"D"d3 A "A7"a>g|
"Bm"f3 e/d/ "Em"g>B|"A7"c/A3 G>A|"G"B3 d "Em"e>f|"A7"A3 A f>g|
"D"f3 e d>c|"G"c/B3 B/ "Em"g>B|"A7"c3 d e>d|"D"d3|

